WebKit/WebInspector/TimelineRecordPaint.svg

<?xml version="1.0" encoding="UTF-8" standalone="no"?>
<!-- Created with Inkscape (http://www.inkscape.org/) -->

<svg
   xmlns:dc="http://purl.org/dc/elements/1.1/"
   xmlns:cc="http://creativecommons.org/ns#"
   xmlns:rdf="http://www.w3.org/1999/02/22-rdf-syntax-ns#"
   xmlns:svg="http://www.w3.org/2000/svg"
   xmlns="http://www.w3.org/2000/svg"
   xmlns:xlink="http://www.w3.org/1999/xlink"
   version="1.1"
   width="16"
   height="16"
   id="svg5300">
  <defs
     id="defs5302">
    <linearGradient
       x1="491.22195"
       y1="506.64685"
       x2="491.22195"
       y2="732.05341"
       id="linearGradient3161-1"
       xlink:href="#linearGradient4373-2-5-8-6-8"
       gradientUnits="userSpaceOnUse"
       gradientTransform="matrix(0.09329421,0,0,0.09329421,-35.8706,-43.768871)" />
    <linearGradient
       id="linearGradient4373-2-5-8-6-8">
      <stop
         id="stop4375-3-6-8-4-7"
         style="stop-color:#a40000;stop-opacity:1"
         offset="0" />
      <stop
         id="stop4377-3-5-2-3-7"
         style="stop-color:#f9adad;stop-opacity:1"
         offset="1" />
    </linearGradient>
    <radialGradient
       cx="301"
       cy="51.5"
       r="19.500002"
       fx="301"
       fy="51.5"
       id="radialGradient3175-6"
       xlink:href="#linearGradient8978-0"
       gradientUnits="userSpaceOnUse"
       gradientTransform="matrix(0.9706301,1.96843e-8,0,0.2861052,-291.15791,-14.630261)" />
    <linearGradient
       id="linearGradient8978-0">
      <stop
         id="stop8980-9"
         style="stop-color:#ffffff;stop-opacity:1"
         offset="0" />
      <stop
         id="stop8982-2"
         style="stop-color:#ffffff;stop-opacity:0"
         offset="1" />
    </linearGradient>
    <radialGradient
       cx="24.44569"
       cy="35.87817"
       r="20.530962"
       fx="24.44569"
       fy="35.87817"
       id="radialGradient5208"
       xlink:href="#linearGradient11520-4"
       gradientUnits="userSpaceOnUse"
       gradientTransform="matrix(0.8569597,3.2529443e-7,-1.2530456e-7,0.3301039,-31.728631,-21.533276)" />
    <linearGradient
       id="linearGradient11520-4">
      <stop
         id="stop11522-7"
         style="stop-color:#ffffff;stop-opacity:1"
         offset="0" />
      <stop
         id="stop11524-7"
         style="stop-color:#fabebe;stop-opacity:1"
         offset="1" />
    </linearGradient>
    <linearGradient
       x1="321.5675"
       y1="145.51683"
       x2="311.65057"
       y2="118.49502"
       id="linearGradient5210"
       xlink:href="#linearGradient4247-6"
       gradientUnits="userSpaceOnUse"
       gradientTransform="matrix(0.5556927,0,0,0.5556793,-188.04562,-93.211546)" />
    <linearGradient
       id="linearGradient4247-6">
      <stop
         id="stop4249-2"
         style="stop-color:#a40000;stop-opacity:1"
         offset="0" />
      <stop
         id="stop4251-2"
         style="stop-color:#f9adad;stop-opacity:1"
         offset="1" />
    </linearGradient>
    <radialGradient
       cx="24.44569"
       cy="35.87817"
       r="20.530962"
       fx="24.44569"
       fy="35.87817"
       id="radialGradient5296"
       xlink:href="#linearGradient11520-4"
       gradientUnits="userSpaceOnUse"
       gradientTransform="matrix(0.8569597,3.2529443e-7,-1.2530456e-7,0.3301039,-12.94897,0.77180918)" />
    <linearGradient
       x1="321.5675"
       y1="145.51683"
       x2="311.65057"
       y2="118.49502"
       id="linearGradient5298"
       xlink:href="#linearGradient4247-6"
       gradientUnits="userSpaceOnUse"
       gradientTransform="matrix(0.5556927,0,0,0.5556793,-169.26596,-70.906461)" />
    <linearGradient
       x1="491.22195"
       y1="506.64685"
       x2="491.22195"
       y2="732.05341"
       id="linearGradient3161-1-6"
       xlink:href="#linearGradient4373-2-5-8-6-8-6"
       gradientUnits="userSpaceOnUse"
       gradientTransform="matrix(0.09329421,0,0,0.09329421,-35.8706,-43.768871)" />
    <linearGradient
       id="linearGradient4373-2-5-8-6-8-6">
      <stop
         id="stop4375-3-6-8-4-7-3"
         style="stop-color:#a40000;stop-opacity:1"
         offset="0" />
      <stop
         id="stop4377-3-5-2-3-7-5"
         style="stop-color:#f9adad;stop-opacity:1"
         offset="1" />
    </linearGradient>
    <linearGradient
       x1="491.22195"
       y1="506.64685"
       x2="491.22195"
       y2="732.05341"
       id="linearGradient5518"
       xlink:href="#linearGradient4373-2-5-8-6-8-6"
       gradientUnits="userSpaceOnUse"
       gradientTransform="matrix(0.09329421,0,0,0.09329421,-38.9244,-46.94361)" />
    <radialGradient
       cx="301"
       cy="51.5"
       r="19.500002"
       fx="301"
       fy="51.5"
       id="radialGradient3929"
       xlink:href="#linearGradient8978-0"
       gradientUnits="userSpaceOnUse"
       gradientTransform="matrix(0.9706301,1.96843e-8,0,0.2861052,-291.15791,-14.630261)" />
    <radialGradient
       cx="24.44569"
       cy="35.87817"
       r="20.530962"
       fx="24.44569"
       fy="35.87817"
       id="radialGradient3933"
       xlink:href="#linearGradient11520-4"
       gradientUnits="userSpaceOnUse"
       gradientTransform="matrix(0.8569597,3.2529443e-7,-1.2530456e-7,0.3301039,-12.94897,0.77180918)" />
    <linearGradient
       x1="321.5675"
       y1="145.51683"
       x2="311.65057"
       y2="118.49502"
       id="linearGradient3935"
       xlink:href="#linearGradient4247-6"
       gradientUnits="userSpaceOnUse"
       gradientTransform="matrix(0.5556927,0,0,0.5556793,-169.26596,-70.906461)" />
    <linearGradient
       id="linearGradient4373-2-5-8-6-8-6-4">
      <stop
         id="stop4375-3-6-8-4-7-3-2"
         style="stop-color:#a40000;stop-opacity:1"
         offset="0" />
      <stop
         id="stop4377-3-5-2-3-7-5-2"
         style="stop-color:#f9adad;stop-opacity:1"
         offset="1" />
    </linearGradient>
    <linearGradient
       x1="491.22195"
       y1="506.64685"
       x2="491.22195"
       y2="732.05341"
       id="linearGradient3952"
       xlink:href="#linearGradient4373-2-5-8-6-8-6-4"
       gradientUnits="userSpaceOnUse"
       gradientTransform="matrix(0.09329421,0,0,0.09329421,-39.902379,-47.24489)" />
    <linearGradient
       x1="491.22195"
       y1="506.64685"
       x2="491.22195"
       y2="732.05341"
       id="linearGradient3925-3-9"
       xlink:href="#linearGradient4373-2-5-8-6-8-6-4-9"
       gradientUnits="userSpaceOnUse"
       gradientTransform="matrix(0.09329421,0,0,0.09329421,-35.8706,-43.768871)" />
    <linearGradient
       id="linearGradient4373-2-5-8-6-8-6-4-9">
      <stop
         id="stop4375-3-6-8-4-7-3-2-1"
         style="stop-color:#a40000;stop-opacity:1"
         offset="0" />
      <stop
         id="stop4377-3-5-2-3-7-5-2-5"
         style="stop-color:#f9adad;stop-opacity:1"
         offset="1" />
    </linearGradient>
    <linearGradient
       x1="491.22195"
       y1="506.64685"
       x2="491.22195"
       y2="732.05341"
       id="linearGradient4080"
       xlink:href="#linearGradient4373-2-5-8-6-8-6-4-9"
       gradientUnits="userSpaceOnUse"
       gradientTransform="matrix(0.09329421,0,0,0.09329421,-40.198725,-47.440746)" />
    <linearGradient
       x1="491.22195"
       y1="506.64685"
       x2="491.22195"
       y2="732.05341"
       id="linearGradient3925-3-9-6"
       xlink:href="#linearGradient4373-2-5-8-6-8-6-4-9-8"
       gradientUnits="userSpaceOnUse"
       gradientTransform="matrix(0.09329421,0,0,0.09329421,-35.8706,-43.768871)" />
    <linearGradient
       id="linearGradient4373-2-5-8-6-8-6-4-9-8">
      <stop
         id="stop4375-3-6-8-4-7-3-2-1-9"
         style="stop-color:#a40000;stop-opacity:1"
         offset="0" />
      <stop
         id="stop4377-3-5-2-3-7-5-2-5-8"
         style="stop-color:#f9adad;stop-opacity:1"
         offset="1" />
    </linearGradient>
    <linearGradient
       x1="491.22195"
       y1="506.64685"
       x2="491.22195"
       y2="732.05341"
       id="linearGradient4733"
       xlink:href="#linearGradient4373-2-5-8-6-8-6-4-9-8"
       gradientUnits="userSpaceOnUse"
       gradientTransform="matrix(0.09329421,0,0,0.09329421,-40.27489,-47.51691)" />
  </defs>
  <metadata
     id="metadata5305">
    <rdf:RDF>
      <cc:Work
         rdf:about="">
        <dc:format>image/svg+xml</dc:format>
        <dc:type
           rdf:resource="http://purl.org/dc/dcmitype/StillImage" />
        <dc:title></dc:title>
        <cc:license
           rdf:resource="http://creativecommons.org/licenses/by-sa/3.0/" />
      </cc:Work>
      <cc:License
         rdf:about="http://creativecommons.org/licenses/by-sa/3.0/">
        <cc:permits
           rdf:resource="http://creativecommons.org/ns#Reproduction" />
        <cc:permits
           rdf:resource="http://creativecommons.org/ns#Distribution" />
        <cc:requires
           rdf:resource="http://creativecommons.org/ns#Notice" />
        <cc:requires
           rdf:resource="http://creativecommons.org/ns#Attribution" />
        <cc:permits
           rdf:resource="http://creativecommons.org/ns#DerivativeWorks" />
        <cc:requires
           rdf:resource="http://creativecommons.org/ns#ShareAlike" />
      </cc:License>
    </rdf:RDF>
  </metadata>
  <rect
     width="15.003705"
     height="15.003344"
     rx="1.5143198"
     ry="1.5142833"
     x="0.49814749"
     y="0.49832821"
     id="rect4319-7"
     style="fill:url(#radialGradient3933);fill-opacity:1;fill-rule:evenodd;stroke:url(#linearGradient3935);stroke-width:1.00000095;stroke-linecap:butt;stroke-linejoin:bevel;stroke-miterlimit:10;stroke-opacity:1;stroke-dasharray:none;stroke-dashoffset:0;marker:none;visibility:visible;display:inline;overflow:visible;enable-background:new" />
  <rect
     width="12.997247"
     height="12.999963"
     rx="0.5081172"
     ry="0.50810492"
     x="1.5013518"
     y="1.5016088"
     id="rect4321-0"
     style="fill:none;stroke:#ffffff;stroke-width:0.99999994;stroke-linecap:butt;stroke-linejoin:bevel;stroke-miterlimit:10;stroke-opacity:1;stroke-dasharray:none;stroke-dashoffset:0;marker:none;visibility:visible;display:inline;overflow:visible;enable-background:new" />
  <rect
     width="14.000044"
     height="14.000041"
     rx="1.9062433"
     ry="1.9062428"
     x="1.0017486"
     y="1.0015783"
     id="rect9035-4"
     style="fill:url(#radialGradient3929);fill-opacity:1;fill-rule:evenodd;stroke:none;stroke-width:1;marker:none;visibility:visible;display:inline;overflow:visible;enable-background:new" />
  <path
     d="m 4.9353007,4.850099 c -0.03291,0.00406 -0.06499,0.014754 -0.09375,0.03125 -0.02216,0.00743 -0.04326,0.017981 -0.0625,0.03125 -0.01131,0.00947 -0.02175,0.019939 -0.03125,0.03125 -0.02758,0.025975 -0.04913,0.058305 -0.0625,0.09375 -0.0026,0.020724 -0.0026,0.041776 0,0.0625 l 0,8 a 0.250025,0.250025 0 0 0 0,0.0625 0.250025,0.250025 0 0 0 0.03125,0.0625 0.250025,0.250025 0 0 0 0.03125,0.03125 0.250025,0.250025 0 0 0 0.03125,0.03125 0.250025,0.250025 0 0 0 0.0625,0.03125 0.250025,0.250025 0 0 0 0.09375,0.03125 l 1.4374997,0 a 0.250025,0.250025 0 0 0 0.09375,-0.03125 0.250025,0.250025 0 0 0 0.0625,-0.03125 0.250025,0.250025 0 0 0 0.03125,-0.03125 0.250025,0.250025 0 0 0 0.03125,-0.03125 0.250025,0.250025 0 0 0 0.03125,-0.03125 0.250025,0.250025 0 0 0 0,-0.0625 0.250025,0.250025 0 0 0 0,-0.03125 l 0,-2.875 c 0.1149081,0.0052 0.2182086,0.03125 0.34375,0.03125 0.8773303,0 1.8771032,-0.05577 2.6875,-0.4375 0.8103966,-0.3817315 1.4374996,-1.1250996 1.4374996,-2.34375 0,-1.1859421 -0.65393,-1.9067539 -1.4062496,-2.25 -0.7523196,-0.3432461 -1.5933054,-0.375 -2.125,-0.375 l -2.6249997,0 z m 1.6874997,1.8125 0.78125,0 c 0.502668,0 0.9798162,0.028766 1.28125,0.15625 0.3014338,0.1274839 0.4375,0.2779793 0.4375,0.6875 0,0.23499 -0.037039,0.3814267 -0.125,0.5 -0.087961,0.1185733 -0.2233926,0.2110623 -0.40625,0.28125 -0.3657149,0.1403755 -0.9332062,0.1875 -1.53125,0.1875 -0.144116,0 -0.2905331,-0.021575 -0.4375,-0.03125 l 0,-1.78125 z"
     id="path7036-2"
     style="font-size:11.52737713px;font-style:normal;font-variant:normal;font-weight:bold;font-stretch:normal;text-align:start;line-height:125%;letter-spacing:0px;word-spacing:0px;writing-mode:lr-tb;text-anchor:start;color:#000000;fill:#ffffff;fill-opacity:1;fill-rule:nonzero;stroke:none;stroke-width:0.9999997;marker:none;visibility:visible;display:block;overflow:visible;enable-background:new;font-family:Cantarell;-inkscape-font-specification:Cantarell Bold" />
  <path
     d="m 5.0478557,3.75 c -0.03291,0.00406 -0.06499,0.014754 -0.09375,0.03125 -0.02216,0.00743 -0.04326,0.017981 -0.0625,0.03125 -0.01131,0.00947 -0.02175,0.019939 -0.03125,0.03125 -0.02758,0.025975 -0.04913,0.058305 -0.0625,0.09375 -0.0026,0.020724 -0.0026,0.041776 0,0.0625 l 0,8 a 0.250025,0.250025 0 0 0 0,0.0625 0.250025,0.250025 0 0 0 0.03125,0.0625 0.250025,0.250025 0 0 0 0.03125,0.03125 0.250025,0.250025 0 0 0 0.03125,0.03125 0.250025,0.250025 0 0 0 0.0625,0.03125 0.250025,0.250025 0 0 0 0.09375,0.03125 l 1.4374997,0 a 0.250025,0.250025 0 0 0 0.09375,-0.03125 0.250025,0.250025 0 0 0 0.0625,-0.03125 0.250025,0.250025 0 0 0 0.03125,-0.03125 0.250025,0.250025 0 0 0 0.03125,-0.03125 0.250025,0.250025 0 0 0 0.03125,-0.03125 0.250025,0.250025 0 0 0 0,-0.0625 0.250025,0.250025 0 0 0 0,-0.03125 l 0,-2.875 c 0.1149081,0.00518 0.2182086,0.03125 0.34375,0.03125 0.8773303,0 1.8771032,-0.055769 2.6875,-0.4375 C 10.577002,8.3370185 11.204105,7.5936504 11.204105,6.375 c 0,-1.1859421 -0.65393,-1.9067539 -1.4062496,-2.25 C 9.0455358,3.7817539 8.20455,3.75 7.6728554,3.75 l -2.6249997,0 z m 1.6874997,1.8125 0.78125,0 c 0.502668,0 0.9798162,0.028766 1.28125,0.15625 0.3014338,0.1274839 0.4375,0.2779793 0.4375,0.6875 0,0.23499 -0.037039,0.3814267 -0.125,0.5 -0.087961,0.1185733 -0.2233926,0.2110623 -0.40625,0.28125 -0.3657149,0.1403755 -0.9332062,0.1875 -1.53125,0.1875 -0.144116,0 -0.2905331,-0.021575 -0.4375,-0.03125 l 0,-1.78125 z"
     id="path7036-2-3"
     style="font-size:11.52737713px;font-style:normal;font-variant:normal;font-weight:bold;font-stretch:normal;text-align:start;line-height:125%;letter-spacing:0px;word-spacing:0px;writing-mode:lr-tb;text-anchor:start;color:#000000;fill:url(#linearGradient3925-3-9-6);fill-opacity:1;fill-rule:nonzero;stroke:none;stroke-width:0.9999997;marker:none;visibility:visible;display:block;overflow:visible;enable-background:new;font-family:Cantarell;-inkscape-font-specification:Cantarell Bold" />
</svg>

<?xml version="1.0" encoding="UTF-8" standalone="no"?>
<!-- Created with Inkscape (http://www.inkscape.org/) -->

<svg xmlns:dc="http://purl.org/dc/elements/1.1/" xmlns:cc="http://creativecommons.org/ns#" xmlns:rdf="http://www.w3.org/1999/02/22-rdf-syntax-ns#" xmlns:svg="http://www.w3.org/2000/svg" xmlns="http://www.w3.org/2000/svg" version="1.1" width="100%" height="100%" viewBox="0 0 16 16" id="svg2">
 <metadata id="metadata38">
  <rdf:RDF>
   <cc:Work rdf:about="">
    <dc:format>image/svg+xml</dc:format>
    <dc:type rdf:resource="http://purl.org/dc/dcmitype/StillImage" />
    <dc:title></dc:title>
    <cc:license rdf:resource="http://creativecommons.org/licenses/by-sa/3.0/" />
   </cc:Work>
   <cc:License rdf:about="http://creativecommons.org/licenses/by-sa/3.0/">
    <cc:permits rdf:resource="http://creativecommons.org/ns#Reproduction" />
    <cc:permits rdf:resource="http://creativecommons.org/ns#Distribution" />
    <cc:requires rdf:resource="http://creativecommons.org/ns#Notice" />
    <cc:requires rdf:resource="http://creativecommons.org/ns#Attribution" />
    <cc:permits rdf:resource="http://creativecommons.org/ns#DerivativeWorks" />
    <cc:requires rdf:resource="http://creativecommons.org/ns#ShareAlike" />
   </cc:License>
  </rdf:RDF>
 </metadata>
 <defs id="defs4">
  <radialGradient cx="301" cy="51.5" r="19.5" id="b" gradientUnits="userSpaceOnUse" gradientTransform="matrix(0.97063,1.9684e-8,0,0.28611,-291.16,-14.63)">
   <stop id="stop7" style="stop-color:#ffffff;stop-opacity:1" offset="0" />
   <stop id="stop9" style="stop-color:#ffffff;stop-opacity:0" offset="1" />
  </radialGradient>
  <radialGradient cx="24.445999" cy="35.877998" r="20.531" id="a" gradientUnits="userSpaceOnUse" gradientTransform="matrix(0.85696,3.2529e-7,-1.253e-7,0.3301,-12.949,0.77181)">
   <stop id="stop12" style="stop-color:#ffffff;stop-opacity:1" offset="0" />
   <stop id="stop14" style="stop-color:#dcf6c2;stop-opacity:1" offset="1" />
  </radialGradient>
  <linearGradient x1="321.57001" y1="145.52" x2="311.64999" y2="118.5" id="c" gradientUnits="userSpaceOnUse" gradientTransform="matrix(0.55569,0,0,0.55568,-169.27,-70.906)">
   <stop id="stop17" style="stop-color:#4e9a06;stop-opacity:1" offset="0" />
   <stop id="stop19" style="stop-color:#d3f4b2;stop-opacity:1" offset="1" />
  </linearGradient>
  <linearGradient x1="491.22" y1="506.64999" x2="491.22" y2="732.04999" id="d" gradientUnits="userSpaceOnUse" gradientTransform="matrix(0.093294,0,0,0.093294,-35.84,-43.769)">
   <stop id="stop22" style="stop-color:#4e9a06;stop-opacity:1" offset="0" />
   <stop id="stop24" style="stop-color:#8ae234;stop-opacity:1" offset="1" />
  </linearGradient>
 </defs>
 <rect width="15.004" height="15.003" rx="1.5143" ry="1.5143" x="0.49814999" y="0.49833" id="rect26" style="fill:url(#a);fill-rule:evenodd;stroke:url(#c);stroke-linejoin:bevel;stroke-miterlimit:10" />
 <rect width="12.997" height="13" rx="0.50812" ry="0.50809997" x="1.5014" y="1.5016" id="rect28" style="fill:none;stroke:#ffffff;stroke-linejoin:bevel;stroke-miterlimit:10" />
 <rect width="14" height="14" rx="1.9062001" ry="1.9062001" x="1.0017" y="1.0016" id="rect30" style="fill:url(#b);fill-rule:evenodd" />
 <path d="M 4.9353,4.8501 C 4.90239,4.85416 4.87031,4.864854 4.84155,4.88135 4.81939,4.88878 4.79829,4.899331 4.77905,4.9126 4.76774,4.92207 4.7573,4.932539 4.7478,4.94385 4.72022,4.969825 4.69867,5.002155 4.6853,5.0376 c -0.0026,0.020724 -0.0026,0.041776 0,0.0625 v 8 a 0.25002,0.25002 0 0 0 0,0.0625 0.25002,0.25002 0 0 0 0.03125,0.0625 0.25002,0.25002 0 0 0 0.03125,0.03125 0.25002,0.25002 0 0 0 0.03125,0.03125 0.25002,0.25002 0 0 0 0.0625,0.03125 0.25002,0.25002 0 0 0 0.09375,0.03125 H 6.3728 A 0.25002,0.25002 0 0 0 6.46655,13.31885 0.25002,0.25002 0 0 0 6.52905,13.2876 0.25002,0.25002 0 0 0 6.5603,13.25635 0.25002,0.25002 0 0 0 6.59155,13.2251 0.25002,0.25002 0 0 0 6.6228,13.19385 a 0.25002,0.25002 0 0 0 0,-0.0625 0.25002,0.25002 0 0 0 0,-0.03125 v -2.875 c 0.11491,0.0052 0.21821,0.03125 0.34375,0.03125 0.87733,0 1.8771,-0.05577 2.6875,-0.4375 0.8104,-0.38173 1.4375,-1.1251 1.4375,-2.3438 0,-1.1859 -0.65393,-1.9068 -1.4062,-2.25 -0.75232,-0.34325 -1.5933,-0.375 -2.125,-0.375 h -2.625 z m 1.6875,1.8125 h 0.78125 c 0.50267,0 0.97982,0.028766 1.2812,0.15625 0.30143,0.12748 0.4375,0.27798 0.4375,0.6875 0,0.23499 -0.037039,0.38143 -0.125,0.5 C 8.909789,8.12492 8.77436,8.21741 8.5915,8.2876 8.22579,8.42798 7.65829,8.4751 7.0603,8.4751 6.91618,8.4751 6.76977,8.453525 6.6228,8.44385 v -1.7812 z" id="path32" style="fill:#ffffff;display:block" />
 <path d="M 5.0479,3.75 C 5.01499,3.75406 4.98291,3.764754 4.95415,3.78125 4.93199,3.78868 4.91089,3.799231 4.89165,3.8125 4.88034,3.82197 4.8699,3.832439 4.8604,3.84375 4.83282,3.869725 4.81127,3.902055 4.7979,3.9375 4.7953,3.958224 4.7953,3.979276 4.7979,4 v 8 a 0.25002,0.25002 0 0 0 0,0.0625 0.25002,0.25002 0 0 0 0.03125,0.0625 0.25002,0.25002 0 0 0 0.03125,0.03125 0.25002,0.25002 0 0 0 0.03125,0.03125 0.25002,0.25002 0 0 0 0.0625,0.03125 A 0.25002,0.25002 0 0 0 5.0479,12.25 H 6.4854 A 0.25002,0.25002 0 0 0 6.57915,12.21875 0.25002,0.25002 0 0 0 6.64165,12.1875 0.25002,0.25002 0 0 0 6.6729,12.15625 0.25002,0.25002 0 0 0 6.70415,12.125 0.25002,0.25002 0 0 0 6.7354,12.09375 a 0.25002,0.25002 0 0 0 0,-0.0625 0.25002,0.25002 0 0 0 0,-0.03125 V 9.125 c 0.11491,0.00518 0.21821,0.03125 0.34375,0.03125 0.87733,0 1.8771,-0.055769 2.6875,-0.4375 0.8104,-0.3818 1.4374,-1.1251 1.4374,-2.3438 0,-1.1859 -0.65393,-1.9068 -1.4062,-2.25 -0.7523,-0.3432 -1.5932,-0.375 -2.1249,-0.375 h -2.625 z m 1.6875,1.8125 h 0.78125 c 0.50267,0 0.97982,0.028766 1.2812,0.15625 0.30143,0.12748 0.4375,0.27798 0.4375,0.6875 0,0.23499 -0.037039,0.38143 -0.125,0.5 C 9.022389,7.02482 8.88696,7.11731 8.7041,7.1875 8.33839,7.32788 7.77089,7.375 7.1729,7.375 7.02878,7.375 6.88237,7.353425 6.7354,7.34375 v -1.7812 z" id="path34" style="fill:url(#d);display:block" />
</svg>
